packages/core/src/svgs/nos.svg

<svg width="24" height="24" viewBox="0 0 24 24" fill="none" xmlns="http://www.w3.org/2000/svg">
<g clip-path="url(#clip0_31_14950)">
<path d="M0 0H24V24H0V0Z" fill="#181B1E"/>
<path d="M5.14282 18H6.42854V8.04C6.42854 7.53429 7.22568 7.02429 7.76568 7.64571L12.4285 16.7143H10.7143L8.35711 12H6.85711L9.85711 18H14.58L9.02139 7.10571C9.02139 7.10571 8.47282 6.00857 7.16996 6.00857C5.86711 6.00857 5.14282 7.33714 5.14282 7.73571V18ZM18.8571 6H17.5714V15.9729C17.5714 16.4743 16.7828 16.9843 16.2428 16.3629L11.5714 7.28571H13.2857L15.6428 12H17.1428L14.1514 6H9.42854L14.9871 16.9029C14.9871 16.9029 15.5357 18 16.8428 18C18.15 18 18.8571 16.6714 18.8571 16.2729V6Z" fill="#0DE90B"/>
</g>
<defs>
<clipPath id="clip0_31_14950">
<rect width="24" height="24" fill="white"/>
</clipPath>
</defs>
</svg>

<svg xmlns="http://www.w3.org/2000/svg" width="24" height="24" fill="none" viewBox="0 0 24 24"><g clip-path="url(#a)"><path fill="#181B1E" d="M0 0h24v24H0z"/><path fill="#0DE90B" d="M5.143 18h1.286V8.04c0-.506.797-1.016 1.337-.394l4.663 9.068h-1.715L8.357 12h-1.5l3 6h4.723L9.021 7.106S8.473 6.009 7.17 6.009 5.143 7.337 5.143 7.736zM18.857 6h-1.286v9.973c0 .501-.788 1.011-1.328.39L11.57 7.286h1.715L15.643 12h1.5L14.15 6H9.43l5.558 10.903S15.536 18 16.843 18s2.014-1.329 2.014-1.727z"/></g><defs><clipPath id="a"><path fill="#fff" d="M0 0h24v24H0z"/></clipPath></defs></svg>
